icons/svg/remote-desktop-control_12.svg

<svg width="12" height="12" viewBox="0 0 12 12" fill="none" xmlns="http://www.w3.org/2000/svg">
<path d="M7.498 6.44854C7.407 6.44854 7.316 6.42355 7.236 6.37455C7.09 6.28355 7 6.12355 7 5.95155V3.51155C7 3.30955 7.122 3.12655 7.309 3.05155C7.642 2.91555 7.642 2.91555 9.484 4.79055C9.596 4.90455 9.646 5.06355 9.62 5.22055C9.593 5.37855 9.493 5.51255 9.351 5.58355L9.043 5.73755L9.306 6.27754C9.425 6.52454 9.321 6.82155 9.074 6.94155C9.004 6.97555 8.931 6.99155 8.857 6.99155C8.672 6.99155 8.494 6.88755 8.408 6.71055L8.151 6.18055L7.721 6.39555C7.65 6.43055 7.574 6.44854 7.498 6.44854ZM10.5 0.999756L1.5 0.999956C0.67 0.999956 0 1.66996 0 2.49996V7.49996C0 8.32996 0.67 8.99996 1.5 8.99996H4.5V9.33329C4.5 9.63929 4.27878 9.99996 3.99939 9.99996C3.72 9.99996 3.5 10.22 3.5 10.5C3.5 10.78 3.72 11 4 11C4.18667 11 5.52 11 8 11C8.28 11 8.5 10.78 8.5 10.5C8.5 10.22 8.28 9.99996 8 9.99996C7.72 9.99996 7.5 9.63929 7.5 9.33329V8.99996H10.5C11.33 8.99996 12 8.32996 12 7.49996V2.49996C12 1.66996 11.33 0.999756 10.5 0.999756ZM6.59 9.99996H5.41C5.47612 9.8264 5.5 9.69418 5.5 9.49996V8.99996H6.5V9.49996C6.5 9.69418 6.52388 9.8264 6.59 9.99996ZM11 7.49996C11 7.77996 10.78 7.99996 10.5 7.99996H1.5C1.22 7.99996 1 7.80596 1 7.49996V2.49996C1 2.22996 1.23 1.99996 1.5 1.99996H10.5C10.78 1.99996 11 2.21996 11 2.49996V7.49996ZM7.996 4.69955V5.14755L8.293 4.99955C8.193 4.89855 8.094 4.79855 7.996 4.69955Z" fill="#121212"/>
</svg>

<?xml version="1.0" encoding="utf-8"?>
<!-- Generator: Adobe Illustrator 23.0.2, SVG Export Plug-In . SVG Version: 6.00 Build 0)  -->
<svg version="1.1" id="Layer_1" xmlns="http://www.w3.org/2000/svg" xmlns:xlink="http://www.w3.org/1999/xlink" x="0px" y="0px"
	 viewBox="0 0 12 12" style="enable-background:new 0 0 12 12;" xml:space="preserve">
<style type="text/css">
	.st0{fill:#121212;}
</style>
<g>
	<path class="st0" d="M10.5,1l-9,0C0.7,1,0,1.7,0,2.5v5C0,8.3,0.7,9,1.5,9h3v0.3C4.5,9.6,4.3,10,4,10s-0.5,0.2-0.5,0.5S3.7,11,4,11
		c0.2,0,1.5,0,4,0c0.3,0,0.5-0.2,0.5-0.5S8.3,10,8,10S7.5,9.6,7.5,9.3V9h3C11.3,9,12,8.3,12,7.5v-5C12,1.7,11.3,1,10.5,1z M5.4,10
		c0.1-0.2,0.1-0.3,0.1-0.5V9h1v0.5c0,0.2,0,0.3,0.1,0.5H5.4z M11,7.5C11,7.8,10.8,8,10.5,8h-9C1.2,8,1,7.8,1,7.5v-5
		C1,2.2,1.2,2,1.5,2h9C10.8,2,11,2.2,11,2.5V7.5z"/>
	<path class="st0" d="M7.3,3.1C7.1,3.1,7,3.3,7,3.5V6c0,0.2,0.1,0.3,0.2,0.4c0.1,0,0.2,0.1,0.3,0.1c0.1,0,0.2,0,0.2-0.1l0.4-0.2
		l0.3,0.5C8.5,6.9,8.7,7,8.9,7C8.9,7,9,7,9.1,6.9c0.2-0.1,0.4-0.4,0.2-0.7L9,5.7l0.3-0.2c0.1-0.1,0.2-0.2,0.3-0.4
		c0-0.2,0-0.3-0.1-0.4C7.6,2.9,7.6,2.9,7.3,3.1z M8,5.1V4.7C8.1,4.8,8.2,4.9,8.3,5L8,5.1z"/>
</g>
</svg>
